assets/images/icons/availability-icon.svg

<svg width="40" height="40" viewBox="0 0 40 40" fill="none" xmlns="http://www.w3.org/2000/svg">
<g clip-path="url(#clip0_211_3885)">
<path opacity="0.1" d="M0.278944 28.9522C-0.0736318 25.9401 -0.122607 22.9843 0.310078 20.3101C0.84212 17.0218 2.23117 13.3636 3.74867 10.092C6.71454 3.69799 12.0239 1.46106 18.489 0.452582C27.5008 -0.953153 39.9215 0.452613 40 11.3589C39.5479 15.2591 36.5646 26.1018 26.4939 26.9292C23.1642 27.2028 21.9185 30.5473 20.4515 34.3758C16.5911 44.4503 1.56969 39.9794 0.278944 28.9522Z" fill="#7FB51F"/>
<path d="M14.7493 8.91667C14.7493 8.27233 14.227 7.75 13.5827 7.75C12.9384 7.75 12.416 8.27233 12.416 8.91667V10.0833C12.416 10.7277 12.9384 11.25 13.5827 11.25C14.227 11.25 14.7493 10.7277 14.7493 10.0833V8.91667Z" fill="#7FB51F"/>
<path d="M27.5833 8.91667C27.5833 8.27233 27.061 7.75 26.4167 7.75C25.7723 7.75 25.25 8.27233 25.25 8.91667V10.0833C25.25 10.7277 25.7723 11.25 26.4167 11.25C27.061 11.25 27.5833 10.7277 27.5833 10.0833V8.91667Z" fill="#7FB51F"/>
<path d="M8.33398 16.5V29.9167C8.33398 31.2052 9.37873 32.25 10.6673 32.25H29.334C30.6226 32.25 31.6673 31.2052 31.6673 29.9167V16.5H8.33398ZM15.334 28.1667C15.334 28.8112 14.8119 29.3333 14.1673 29.3333H13.0007C12.3561 29.3333 11.834 28.8112 11.834 28.1667V27C11.834 26.3554 12.3561 25.8333 13.0007 25.8333H14.1673C14.8119 25.8333 15.334 26.3554 15.334 27V28.1667ZM15.334 21.75C15.334 22.3946 14.8119 22.9167 14.1673 22.9167H13.0007C12.3561 22.9167 11.834 22.3946 11.834 21.75V20.5833C11.834 19.9387 12.3561 19.4167 13.0007 19.4167H14.1673C14.8119 19.4167 15.334 19.9387 15.334 20.5833V21.75ZM21.7507 28.1667C21.7507 28.8112 21.2286 29.3333 20.584 29.3333H19.4173C18.7727 29.3333 18.2507 28.8112 18.2507 28.1667V27C18.2507 26.3554 18.7727 25.8333 19.4173 25.8333H20.584C21.2286 25.8333 21.7507 26.3554 21.7507 27V28.1667ZM21.7507 21.75C21.7507 22.3946 21.2286 22.9167 20.584 22.9167H19.4173C18.7727 22.9167 18.2507 22.3946 18.2507 21.75V20.5833C18.2507 19.9387 18.7727 19.4167 19.4173 19.4167H20.584C21.2286 19.4167 21.7507 19.9387 21.7507 20.5833V21.75ZM28.1673 28.1667C28.1673 28.8112 27.6452 29.3333 27.0007 29.3333H25.834C25.1894 29.3333 24.6673 28.8112 24.6673 28.1667V27C24.6673 26.3554 25.1894 25.8333 25.834 25.8333H27.0007C27.6452 25.8333 28.1673 26.3554 28.1673 27V28.1667ZM28.1673 21.75C28.1673 22.3946 27.6452 22.9167 27.0007 22.9167H25.834C25.1894 22.9167 24.6673 22.3946 24.6673 21.75V20.5833C24.6673 19.9387 25.1894 19.4167 25.834 19.4167H27.0007C27.6452 19.4167 28.1673 19.9387 28.1673 20.5833V21.75Z" fill="#7FB51F"/>
<path d="M31.6673 15.3333V11.8333C31.6673 10.5447 30.6226 9.5 29.334 9.5H28.7507V10.0833C28.7507 11.3702 27.7042 12.4167 26.4173 12.4167C25.1305 12.4167 24.084 11.3702 24.084 10.0833V9.5H15.9173V10.0833C15.9173 11.3702 14.8708 12.4167 13.584 12.4167C12.2972 12.4167 11.2507 11.3702 11.2507 10.0833V9.5H10.6673C9.37873 9.5 8.33398 10.5447 8.33398 11.8333V15.3333H31.6673Z" fill="#7FB51F"/>
</g>
<defs>
<clipPath id="clip0_211_3885">
<rect width="40" height="40" fill="white"/>
</clipPath>
</defs>
</svg>

<svg xmlns="http://www.w3.org/2000/svg" width="40" height="40" fill="none"><g fill="#7FB51F" clip-path="url(#a)"><path d="M.279 28.952c-.353-3.012-.402-5.968.031-8.642.532-3.288 1.921-6.946 3.439-10.218 2.966-6.394 8.275-8.63 14.74-9.64C27.501-.952 39.922.453 40 11.36c-.452 3.9-3.435 14.743-13.506 15.57-3.33.274-4.575 3.618-6.042 7.447C16.592 44.45 1.57 39.979.279 28.952" opacity=".1"/><path d="M14.75 8.917a1.167 1.167 0 1 0-2.334 0v1.166a1.167 1.167 0 0 0 2.333 0zm12.833 0a1.167 1.167 0 1 0-2.333 0v1.166a1.167 1.167 0 1 0 2.333 0zM8.334 16.5v13.417a2.333 2.333 0 0 0 2.333 2.333h18.667a2.333 2.333 0 0 0 2.333-2.333V16.5zm7 11.667c0 .644-.522 1.166-1.167 1.166h-1.166a1.166 1.166 0 0 1-1.167-1.166V27c0-.645.522-1.167 1.167-1.167h1.166c.645 0 1.167.522 1.167 1.167zm0-6.417c0 .645-.522 1.167-1.167 1.167h-1.166a1.166 1.166 0 0 1-1.167-1.167v-1.167c0-.644.522-1.166 1.167-1.166h1.166c.645 0 1.167.522 1.167 1.166zm6.417 6.417c0 .644-.522 1.166-1.167 1.166h-1.167a1.166 1.166 0 0 1-1.166-1.166V27c0-.645.522-1.167 1.166-1.167h1.167c.645 0 1.167.522 1.167 1.167zm0-6.417c0 .645-.522 1.167-1.167 1.167h-1.167a1.166 1.166 0 0 1-1.166-1.167v-1.167c0-.644.522-1.166 1.166-1.166h1.167c.645 0 1.167.522 1.167 1.166zm6.416 6.417c0 .644-.522 1.166-1.166 1.166h-1.167a1.166 1.166 0 0 1-1.167-1.166V27c0-.645.522-1.167 1.167-1.167h1.167c.644 0 1.166.522 1.166 1.167zm0-6.417c0 .645-.522 1.167-1.166 1.167h-1.167a1.166 1.166 0 0 1-1.167-1.167v-1.167c0-.644.522-1.166 1.167-1.166h1.167c.644 0 1.166.522 1.166 1.166z"/><path d="M31.667 15.333v-3.5A2.333 2.333 0 0 0 29.334 9.5h-.583v.583a2.336 2.336 0 0 1-2.334 2.334 2.336 2.336 0 0 1-2.333-2.334V9.5h-8.167v.583a2.336 2.336 0 0 1-2.333 2.334 2.336 2.336 0 0 1-2.333-2.334V9.5h-.584a2.333 2.333 0 0 0-2.333 2.333v3.5z"/></g><defs><clipPath id="a"><path fill="#fff" d="M0 0h40v40H0z"/></clipPath></defs></svg>
